X: 19557
T: James Gannon's
R: barndance
M: 4/4
K: Gmajor
|:B2 AB e2 dB|d2 cG E2 FG|A2 AB cAFD|GA B<G D4|
B2 AB e2 dB|d2 cG E2 FG|A2 AB cAFA|G2 g2 g4:|
|:edef gfga|b2 d2 d4|cBAB cdef|g2 B2 B2 gf|
edef gfga|b2 d2 d4|cBAB cdef|g2 f<a g4:|

